papirus/32x32/apps/gitter.svg

<?xml version="1.0" encoding="UTF-8" standalone="no"?>
<svg
   xmlns:dc="http://purl.org/dc/elements/1.1/"
   xmlns:cc="http://creativecommons.org/ns#"
   xmlns:rdf="http://www.w3.org/1999/02/22-rdf-syntax-ns#"
   xmlns:svg="http://www.w3.org/2000/svg"
   xmlns="http://www.w3.org/2000/svg"
   version="1.1"
   width="32"
   viewBox="0 0 32 32.000001"
   height="32"
   id="svg4346">
  <defs
     id="defs13" />
  <metadata
     id="metadata4351">
    <rdf:RDF>
      <cc:Work
         rdf:about="">
        <dc:format>image/svg+xml</dc:format>
        <dc:type
           rdf:resource="http://purl.org/dc/dcmitype/StillImage" />
        <dc:title></dc:title>
      </cc:Work>
    </rdf:RDF>
  </metadata>
  <rect
     style="fill:#e11966;fill-opacity:1"
     x="-30"
     y="-30"
     width="28"
     height="28"
     transform="matrix(0,-1,-1,0,0,0)"
     rx="1.4"
     ry="1.4"
     id="rect4203" />
  <g
     transform="translate(0,1)"
     id="g4527"
     style="opacity:0.2;fill:#000000;fill-opacity:1">
    <rect
       id="rect4529"
       style="opacity:1;fill:#000000;fill-opacity:1;fill-rule:nonzero;stroke:none"
       y="6"
       x="7"
       height="14"
       width="3" />
    <rect
       id="rect4531"
       style="opacity:1;fill:#000000;fill-opacity:1;fill-rule:nonzero;stroke:none"
       y="10"
       x="12"
       height="17"
       width="3" />
    <rect
       id="rect4533"
       style="opacity:1;fill:#000000;fill-opacity:1;fill-rule:nonzero;stroke:none"
       y="10"
       x="17"
       height="17"
       width="3" />
    <rect
       id="rect4535"
       style="opacity:1;fill:#000000;fill-opacity:1;fill-rule:nonzero;stroke:none"
       y="10"
       x="22"
       height="10"
       width="3" />
  </g>
  <g
     style="fill:#ffffff;fill-opacity:1"
     id="g4521">
    <rect
       width="3"
       height="14"
       x="7"
       y="6"
       style="opacity:1;fill:#ffffff;fill-opacity:1;fill-rule:nonzero;stroke:none"
       id="rect29" />
    <rect
       width="3"
       height="17"
       x="12"
       y="10"
       style="opacity:1;fill:#ffffff;fill-opacity:1;fill-rule:nonzero;stroke:none"
       id="rect31" />
    <rect
       width="3"
       height="17"
       x="17"
       y="10"
       style="opacity:1;fill:#ffffff;fill-opacity:1;fill-rule:nonzero;stroke:none"
       id="rect33" />
    <rect
       width="3"
       height="10"
       x="22"
       y="10"
       style="opacity:1;fill:#ffffff;fill-opacity:1;fill-rule:nonzero;stroke:none"
       id="rect35" />
  </g>
  <path
     id="rect4511"
     d="M 3.4003906 2 C 2.6247906 2 2 2.6247906 2 3.4003906 L 2 4.4003906 C 2 3.6247906 2.6247906 3 3.4003906 3 L 28.599609 3 C 29.375209 3 30 3.6247906 30 4.4003906 L 30 3.4003906 C 30 2.6247906 29.375209 2 28.599609 2 L 3.4003906 2 z "
     style="fill:#ffffff;fill-opacity:1;opacity:0.2" />
  <path
     id="rect4516"
     d="M 2 27.599609 L 2 28.599609 C 2 29.375209 2.6247906 30 3.4003906 30 L 28.599609 30 C 29.375209 30 30 29.375209 30 28.599609 L 30 27.599609 C 30 28.375209 29.375209 29 28.599609 29 L 3.4003906 29 C 2.6247906 29 2 28.375209 2 27.599609 z "
     style="fill:#000000;fill-opacity:1;opacity:0.3" />
</svg>

<?xml version="1.0" encoding="UTF-8" standalone="no"?>
<svg id="svg4346" xmlns:rdf="http://www.w3.org/1999/02/22-rdf-syntax-ns#" xmlns="http://www.w3.org/2000/svg" height="32" viewBox="0 0 32 32.000001" width="32" version="1.1" xmlns:cc="http://creativecommons.org/ns#" xmlns:dc="http://purl.org/dc/elements/1.1/">
 <metadata id="metadata4351">
  <rdf:RDF>
   <cc:Work rdf:about="">
    <dc:format>image/svg+xml</dc:format>
    <dc:type rdf:resource="http://purl.org/dc/dcmitype/StillImage"/>
    <dc:title/>
   </cc:Work>
  </rdf:RDF>
 </metadata>
 <rect id="rect4203" ry="1.4" rx="1.4" transform="matrix(0,-1,-1,0,0,0)" height="28" width="28" y="-30" x="-30" fill="#e11966"/>
 <g id="g4527" opacity=".2" transform="translate(0,1)">
  <rect id="rect4529" opacity="1" height="14" width="3" y="6" x="7"/>
  <rect id="rect4531" opacity="1" height="17" width="3" y="10" x="12"/>
  <rect id="rect4533" opacity="1" height="17" width="3" y="10" x="17"/>
  <rect id="rect4535" opacity="1" height="10" width="3" y="10" x="22"/>
 </g>
 <g id="g4521" fill="#fff">
  <rect id="rect29" height="14" width="3" y="6" x="7"/>
  <rect id="rect31" height="17" width="3" y="10" x="12"/>
  <rect id="rect33" height="17" width="3" y="10" x="17"/>
  <rect id="rect35" height="10" width="3" y="10" x="22"/>
 </g>
 <path id="rect4511" opacity=".2" d="m3.4004 2c-0.7756 0-1.4004 0.6248-1.4004 1.4004v1c0-0.7756 0.6248-1.4004 1.4004-1.4004h25.2c0.775 0 1.4 0.6248 1.4 1.4004v-1c0-0.7756-0.625-1.4004-1.4-1.4004h-25.2z" fill="#fff"/>
 <path id="rect4516" opacity=".2" d="m2 28.6v1c0 0.775 0.6248 1.4 1.4004 1.4h25.2c0.775 0 1.4-0.625 1.4-1.4v-1c0 0.775-0.625 1.4-1.4 1.4h-25.2c-0.7752 0-1.4-0.625-1.4-1.4z"/>
</svg>
